X:1
T:Spring Song (Songs Without Words)
C:Felix Mendelssohn
M:2/4
L:1/16
Q:1/4=120
K:A
% A section — 8 bars + pickup. Range A4–E5. Triplet sixteenth groups throughout.
E4 | (3AcA (3ecA (3ecA e2 | (3dBd (3cAc B2A2 |
(3AcA (3ecA (3ece d2 | c6 BA |
(3AcA (3ecA (3ecA e2 | (3dcd (3ede (3dcd B2 |
(3AcA (3ece (3dcd c2 | A8 |]
